brandFactory_export/2.Regular/Cambiar mi clave wifi_2Regular.svg

<?xml version="1.0" encoding="UTF-8"?>
<svg width="24px" height="24px" viewBox="0 0 24 24" version="1.1" xmlns="http://www.w3.org/2000/svg" xmlns:xlink="http://www.w3.org/1999/xlink">
    <title>2.Regular/Cambiar mi clave wifi_2Regular</title>
    <g id="Symbols" stroke="none" stroke-width="1" fill="none" fill-rule="evenodd">
        <g id="2.Regular/Cambiar-mi-clave-wifi_2Regular" fill="#5CB615" fill-rule="nonzero">
            <path d="M11.6621849,0.0302521008 C14.7512605,0.0302521008 17.2621849,2.43361345 17.2621849,5.38823529 C17.2722689,5.73109244 17.0033613,6.02016807 16.6605042,6.0302521 C16.3176471,6.04033613 16.0285714,5.77142857 16.0184874,5.42857143 L16.0184874,5.38823529 C16.0184874,3.12268908 14.0655462,1.27731092 11.6621849,1.27731092 L11.4403361,1.27731092 C9.04033613,1.27731092 7.08403361,3.12268908 7.08403361,5.38823529 L7.08352941,8.5472521 L16.0823529,8.54789916 C17.3226891,8.54789916 18.297479,8.88067227 18.9831933,9.53613445 C19.692437,10.2184874 20.0621849,11.2168067 20.0756303,12.507563 L20.0756303,19.6268908 C20.0588235,20.9176471 19.692437,21.9193277 18.9831933,22.5983193 C18.297479,23.2571429 17.3226891,23.589916 16.0823529,23.589916 L6.99327731,23.589916 C5.75294118,23.589916 4.77478992,23.2571429 4.09243697,22.5983193 C3.38319328,21.9159664 3.02352941,20.9109244 3.02352941,19.6201681 L3.02689076,12.8403361 C3.02689076,12.6978151 3.0247395,12.6219832 3.02387899,12.5835832 L3.02352941,12.5176471 C3.02352941,11.2235294 3.38319328,10.2218487 4.09243697,9.5394958 C4.54705515,9.10055411 5.13148321,8.80634297 5.83876251,8.65885057 L5.84033613,5.38823529 C5.84033613,2.43361345 8.3512605,0.0302521008 11.4403361,0.0302521008 L11.6621849,0.0302521008 Z M16.0857143,9.78823529 L6.99327731,9.78823529 C5.14117647,9.79159664 4.27731092,10.6487395 4.27058824,12.4907563 L4.27131429,12.6828908 C4.27179832,12.7226891 4.27260504,12.7710924 4.27394958,12.8302521 L4.27394958,12.8336134 L4.27058824,19.6201681 C4.27058824,21.4789916 5.13445378,22.3428571 6.99327731,22.3428571 L16.0857143,22.3428571 C17.9378151,22.3428571 18.8117647,21.4756303 18.8352941,19.6134454 L18.8352941,12.5176471 C18.8117647,10.6554622 17.9378151,9.78823529 16.0857143,9.78823529 Z M11.5512605,19.2235294 C12.0386555,19.2235294 12.3546218,19.4756303 12.3546218,20.0201681 C12.3546218,20.2823529 12.2840336,20.4773109 12.1529412,20.6084034 C12.0117647,20.7529412 11.8067227,20.8201681 11.5512605,20.8201681 C11.2957983,20.8201681 11.0907563,20.7495798 10.9495798,20.6084034 C10.8218487,20.4773109 10.7478992,20.2823529 10.7478992,20.0201681 C10.7478992,19.4756303 11.0638655,19.2235294 11.5512605,19.2235294 Z M11.5546218,16.4235294 C13.1915966,16.4235294 14.4554622,16.8739496 15.3159664,17.7579832 C15.5546218,18.0033613 15.5478992,18.4 15.302521,18.6386555 C15.0571429,18.8773109 14.6605042,18.8705882 14.4218487,18.6252101 C13.8067227,17.989916 12.8420168,17.6672269 11.5546218,17.6672269 C10.2672269,17.6672269 9.29579832,17.989916 8.68067227,18.6285714 C8.56302521,18.7495798 8.40168067,18.8201681 8.23361345,18.8201681 C7.8907563,18.8201681 7.61176471,18.5411765 7.61176471,18.1983193 C7.61176471,18.0369748 7.67563025,17.8823529 7.78655462,17.7680672 C8.64705882,16.8773109 9.91428571,16.4235294 11.5546218,16.4235294 Z M11.5579832,13.1159664 C13.9512605,13.1159664 15.7932773,13.7647059 17.0336134,15.0420168 C17.2722689,15.287395 17.2655462,15.6840336 17.0201681,15.9226891 C16.7747899,16.1613445 16.3781513,16.1546218 16.1394958,15.9092437 C15.1411765,14.8806723 13.5983193,14.3596639 11.5546218,14.3596639 C9.50420168,14.3596639 7.95798319,14.8840336 6.96302521,15.9193277 C6.84537815,16.0403361 6.68403361,16.1109244 6.51596639,16.1109244 C6.17310924,16.1109244 5.89411765,15.8319328 5.89411765,15.4890756 C5.89411765,15.3277311 5.95798319,15.1731092 6.06890756,15.0554622 C7.3092437,13.7680672 9.15798319,13.1159664 11.5579832,13.1159664 Z" id="Cambiar-mi-clave-wifi_2Regular"></path>
        </g>
    </g>
</svg>

<svg width="24" height="24" viewBox="0 0 24 24" xmlns="http://www.w3.org/2000/svg"><path d="M11.662.03c3.09 0 5.6 2.404 5.6 5.358a.623.623 0 01-1.244.04v-.04c0-2.265-1.952-4.11-4.356-4.11h-.222c-2.4 0-4.356 1.845-4.356 4.11v3.16h8.998c1.24 0 2.215.333 2.901.988.71.682 1.08 1.68 1.093 2.972v7.119c-.017 1.29-.384 2.292-1.093 2.971-.686.66-1.66.992-2.9.992h-9.09c-1.24 0-2.218-.333-2.9-.992-.71-.682-1.07-1.687-1.07-2.978l.004-6.78c0-.142-.002-.218-.003-.256v-.066c0-1.294.36-2.296 1.068-2.979.455-.438 1.04-.733 1.747-.88l.001-3.27C5.84 2.433 8.351.03 11.44.03h.222zm4.424 9.758H6.993c-1.852.004-2.716.86-2.722 2.703v.192l.003.147v.004L4.27 19.62c0 1.859.863 2.723 2.722 2.723h9.093c1.852 0 2.726-.867 2.75-2.73v-7.095c-.024-1.863-.898-2.73-2.75-2.73zm-4.535 9.436c.488 0 .804.252.804.796 0 .262-.071.457-.202.588-.141.145-.346.212-.602.212-.255 0-.46-.07-.601-.212-.128-.13-.202-.326-.202-.588 0-.544.316-.796.803-.796zm.004-2.8c1.637 0 2.9.45 3.761 1.334a.625.625 0 01-.013.88.625.625 0 01-.881-.013c-.615-.635-1.58-.958-2.867-.958-1.288 0-2.26.323-2.874.962a.623.623 0 01-.894-.86c.86-.892 2.127-1.345 3.768-1.345zm.003-3.308c2.393 0 4.235.649 5.476 1.926a.625.625 0 01-.014.88.625.625 0 01-.88-.013c-.999-1.028-2.542-1.55-4.585-1.55-2.05 0-3.597.525-4.592 1.56a.623.623 0 11-.894-.864c1.24-1.287 3.089-1.939 5.489-1.939z" fill="#5CB615" fill-rule="nonzero"/></svg>
